X: 24
P: No. XXIV.
M: 6/8
L: 1/8
K: D
V: 1
d2e f2d | g2e f2d | d2e fed | c3 e3 |\
d2e f2d | g2e f2d | fga gec | d3- d2 :|
|: g |\
fed c2B | ABA A2g | fed c2A | B3 c3 |\
fed c2B | ABA A2g | fga gec | d3- d2 :|
V: 2 clef=bass middle=d
z |\
d2z d2z | A2z d2z | f2z d2z | aed cBA |\
d2z d2z | A2z d2z | a2z A2z | dAF D2 :|
|: z |\
d2z e2z | f2z d2z | b2z a2z | ged cBA |\
d2z d2z | f2z d2z | a2z A2z | dAF D2 :|

